X:29
T:[Ye woods and groves and purling streams]
Z:Jack Campin - http://www.campin.me.uk
S:Blaikie MS (NLS MS.1578) p11, Blaikie #28
M:C
L:1/4
V:1 midi program 1 74
V:2 midi program 1 46 bass middle = d transpose -24
Q:1/4=100
K:G
[V:1] D   |E    c    A>   G |A/B/ A/G/ E> D|E c A> G|E G G
w:Ye woods and groves and purl-*ing* streams Come help me to be-moan my fate
[V:2] z   |c    c    c ^c   |d    d    c  B|c c d  g|c G G
%
[V:1] D   |E    c    A>   G |A/B/ A/G/ E  D|E c A  G|E G G||
w:I loved a lad that loves* not* me  What shall I do my-self I hate
[V:2] z   |c    c    c ^c   |d    d    c  B|c c d  g|c G G||
%
[V:1] B/c/|d/B/ d/e/ d  c/B/|A/B/ c/d/ e> D|E c A> G|E G G|]
w:Fool* that* I* am for* think-ing of a man That wont love me do what I can
[V:2] z   |G    g    G  g   |d    d    c  B|c c d  g|c G G|]

% note at this point: The foregoing 28 tunes are taken from two M.S. books bearing
% date 1683 and 1692.
W:Transcription (c) Jack Campin 2009, no mirroring or republication without permission

